icons/archive-drawer-fill.svg

<svg xmlns="http://www.w3.org/2000/svg" width="24" height="24" fill="none"><g clip-path="url(#a)"><g><path fill="#121212" d="M3 13H21V21.002C21 21.553 20.555 22 20.007 22H3.993C3.86225 21.9997 3.73283 21.9737 3.61215 21.9234C3.49146 21.8731 3.38188 21.7995 3.28966 21.7068C3.19743 21.6141 3.12438 21.5042 3.07468 21.3832C3.02498 21.2623 2.9996 21.1327 3 21.002V13ZM3 2.998C3 2.447 3.445 2 3.993 2H20.007C20.555 2 21 2.446 21 2.998V11H3V2.998ZM9 5V7H15V5H9ZM9 16V18H15V16H9Z"/></g></g><defs><clipPath id="a"><rect width="24" height="24" fill="white"/></clipPath></defs></svg>

<svg width="24" height="24" fill="none" xmlns="http://www.w3.org/2000/svg"><g clip-path="url(#a)"><path d="M3 13h18v8.002a.996.996 0 0 1-.993.998H3.993A.996.996 0 0 1 3 21.002V13ZM3 2.998C3 2.447 3.445 2 3.993 2h16.014c.548 0 .993.446.993.998V11H3V2.998ZM9 5v2h6V5H9Zm0 11v2h6v-2H9Z" /></g><defs><clipPath id="a"><path fill="#fff" d="M0 0h24v24H0z"/></clipPath></defs></svg>
